app/dist/common/images/cno-financial-group.svg

<svg height="18" width="18" xmlns="http://www.w3.org/2000/svg"><path d="m0 0h18v18h-18z" fill="#f0f3fa"/><path d="m3.999 4h10v2h-7.999v6h8v2h-10v-10z" fill="#242556"/><path d="m6.001 6.013h7.999v5.987h-2v-3.991h-4v3.991h-2z" fill="#cc4021"/><path d="m8 8h4v4h-4z" fill="#fefefe"/><path d="m9 9h2v2h-2z" fill="#242556"/></svg>

<!-- by TradingView --><svg width="18" height="18" xmlns="http://www.w3.org/2000/svg"><path fill="#F0F3FA" d="M0 0h18v18H0z"/><path d="M3.999 4h10v2H6v6h8v2H4V4z" fill="#242556"/><path d="M6.001 6.013c0 .045 0-.045 0 0H14V12h-2V8.009H8V12H6l.001-5.987z" fill="#CC4021"/><path d="M8 8h4v4H8V8z" fill="#FEFEFE"/><path d="M9 9h2v2H9V9z" fill="#242556"/></svg>
